src/assets/outline/SearchStatus1.svg

<svg width="24" height="24" viewBox="0 0 24 24"  xmlns="http://www.w3.org/2000/svg">
<path d="M20 5.75H14C13.59 5.75 13.25 5.41 13.25 5C13.25 4.59 13.59 4.25 14 4.25H20C20.41 4.25 20.75 4.59 20.75 5C20.75 5.41 20.41 5.75 20 5.75Z" />
<path d="M17 8.75H14C13.59 8.75 13.25 8.41 13.25 8C13.25 7.59 13.59 7.25 14 7.25H17C17.41 7.25 17.75 7.59 17.75 8C17.75 8.41 17.41 8.75 17 8.75Z" />
<path d="M11.5 21.75C5.85 21.75 1.25 17.15 1.25 11.5C1.25 5.85 5.85 1.25 11.5 1.25C11.91 1.25 12.25 1.59 12.25 2C12.25 2.41 11.91 2.75 11.5 2.75C6.67 2.75 2.75 6.68 2.75 11.5C2.75 16.32 6.67 20.25 11.5 20.25C16.33 20.25 20.25 16.32 20.25 11.5C20.25 11.09 20.59 10.75 21 10.75C21.41 10.75 21.75 11.09 21.75 11.5C21.75 17.15 17.15 21.75 11.5 21.75Z" />
<path d="M21.9999 22.7495C21.8099 22.7495 21.6199 22.6795 21.4699 22.5295L19.4699 20.5295C19.1799 20.2395 19.1799 19.7595 19.4699 19.4695C19.7599 19.1795 20.2399 19.1795 20.5299 19.4695L22.5299 21.4695C22.8199 21.7595 22.8199 22.2395 22.5299 22.5295C22.3799 22.6795 22.1899 22.7495 21.9999 22.7495Z" />
</svg>

<?xml version="1.0" encoding="UTF-8"?>
<svg width="24" height="24" viewBox="0 0 24 24" xmlns="http://www.w3.org/2000/svg">
 <path d="m20 5.75h-6c-0.41 0-0.75-0.34-0.75-0.75s0.34-0.75 0.75-0.75h6c0.41 0 0.75 0.34 0.75 0.75s-0.34 0.75-0.75 0.75z"/>
 <path d="m17 8.75h-3c-0.41 0-0.75-0.34-0.75-0.75s0.34-0.75 0.75-0.75h3c0.41 0 0.75 0.34 0.75 0.75s-0.34 0.75-0.75 0.75z"/>
 <path d="m11.5 21.75c-5.65 0-10.25-4.6-10.25-10.25s4.6-10.25 10.25-10.25c0.41 0 0.75 0.34 0.75 0.75s-0.34 0.75-0.75 0.75c-4.83 0-8.75 3.93-8.75 8.75s3.92 8.75 8.75 8.75 8.75-3.93 8.75-8.75c0-0.41 0.34-0.75 0.75-0.75s0.75 0.34 0.75 0.75c0 5.65-4.6 10.25-10.25 10.25z"/>
 <path d="m22 22.75c-0.19 0-0.38-0.07-0.53-0.22l-2-2c-0.29-0.29-0.29-0.77 0-1.06s0.77-0.29 1.06 0l2 2c0.29 0.29 0.29 0.77 0 1.06-0.15 0.15-0.34 0.22-0.53 0.22z"/>
</svg>
